docs/reference/data-models/img/resource_example.svg

<svg xmlns="http://www.w3.org/2000/svg" xmlns:xlink="http://www.w3.org/1999/xlink" width="476" height="513" contentScriptType="application/ecmascript" contentStyleType="text/css" style="width:476px;height:513px;background:#00000000" preserveAspectRatio="none" version="1.1" viewBox="0 0 476 513" zoomAndPan="magnify"><g><rect id="resource" width="108" height="37" x="192" y="7" fill="#3d176e" codeLine="18" rx="2.5" ry="2.5" style="stroke:#000d19;stroke-width:1.5"/><ellipse cx="207" cy="25.5" fill="#e98df7" rx="11" ry="11" style="stroke:#000d19;stroke-width:1"/><path fill="#000" d="M209.4731,31.6431 Q208.8921,31.9419 208.2529,32.0913 Q207.6138,32.2407 206.9082,32.2407 Q204.4014,32.2407 203.0815,30.5889 Q201.7617,28.937 201.7617,25.8159 Q201.7617,22.6865 203.0815,21.0347 Q204.4014,19.3828 206.9082,19.3828 Q207.6138,19.3828 208.2612,19.5322 Q208.9087,19.6816 209.4731,19.9805 L209.4731,22.7031 Q208.8423,22.1221 208.2488,21.8523 Q207.6553,21.5825 207.0244,21.5825 Q205.6797,21.5825 204.9949,22.6492 Q204.3101,23.7158 204.3101,25.8159 Q204.3101,27.9077 204.9949,28.9744 Q205.6797,30.041 207.0244,30.041 Q207.6553,30.041 208.2488,29.7712 Q208.8423,29.5015 209.4731,28.9204 Z"/><text x="226" y="30.09" fill="#d9b8ff" font-family="Helvetica" font-size="17" lengthAdjust="spacing" textLength="66">resource</text><rect id="account" width="101" height="37" x="55.5" y="7" fill="#3d176e" codeLine="20" rx="2.5" ry="2.5" style="stroke:#000d19;stroke-width:1.5"/><ellipse cx="70.5" cy="25.5" fill="#e98df7" rx="11" ry="11" style="stroke:#000d19;stroke-width:1"/><path fill="#000" d="M72.9731,31.6431 Q72.3921,31.9419 71.7529,32.0913 Q71.1138,32.2407 70.4082,32.2407 Q67.9014,32.2407 66.5815,30.5889 Q65.2617,28.937 65.2617,25.8159 Q65.2617,22.6865 66.5815,21.0347 Q67.9014,19.3828 70.4082,19.3828 Q71.1138,19.3828 71.7612,19.5322 Q72.4087,19.6816 72.9731,19.9805 L72.9731,22.7031 Q72.3423,22.1221 71.7488,21.8523 Q71.1553,21.5825 70.5244,21.5825 Q69.1797,21.5825 68.4949,22.6492 Q67.8101,23.7158 67.8101,25.8159 Q67.8101,27.9077 68.4949,28.9744 Q69.1797,30.041 70.5244,30.041 Q71.1553,30.041 71.7488,29.7712 Q72.3423,29.5015 72.9731,28.9204 Z"/><text x="89.5" y="30.09" fill="#d9b8ff" font-family="Helvetica" font-size="17" lengthAdjust="spacing" textLength="59">account</text><rect id="volume" width="200" height="205.685" x="146" y="104" fill="#3d176e" codeLine="21" rx="2.5" ry="2.5" style="stroke:#000d19;stroke-width:1.5"/><ellipse cx="209.75" cy="122.5" fill="#e98df7" rx="11" ry="11" style="stroke:#000d19;stroke-width:1"/><path fill="#000" d="M212.2231,128.6431 Q211.6421,128.9419 211.0029,129.0913 Q210.3638,129.2407 209.6582,129.2407 Q207.1514,129.2407 205.8315,127.5889 Q204.5117,125.937 204.5117,122.8159 Q204.5117,119.6865 205.8315,118.0347 Q207.1514,116.3828 209.6582,116.3828 Q210.3638,116.3828 211.0112,116.5322 Q211.6587,116.6816 212.2231,116.9805 L212.2231,119.7031 Q211.5923,119.1221 210.9988,118.8523 Q210.4053,118.5825 209.7744,118.5825 Q208.4297,118.5825 207.7449,119.6492 Q207.0601,120.7158 207.0601,122.8159 Q207.0601,124.9077 207.7449,125.9744 Q208.4297,127.041 209.7744,127.041 Q210.4053,127.041 210.9988,126.7712 Q211.5923,126.5015 212.2231,125.9204 Z"/><text x="235.25" y="127.09" fill="#d9b8ff" font-family="Helvetica" font-size="17" lengthAdjust="spacing" textLength="54">volume</text><line style="stroke:#000d19;stroke-width:1.5" x1="147" x2="345" y1="141" y2="141"/><text x="157" y="160.635" fill="#d9b8ff" font-family="sans-serif" font-size="11" lengthAdjust="spacing" textLength="100">volume_size: int64</text><text x="157" y="183.59" fill="#d9b8ff" font-family="sans-serif" font-size="11" lengthAdjust="spacing" textLength="106">volume_type: string</text><text x="157" y="206.545" fill="#d9b8ff" font-family="sans-serif" font-size="11" lengthAdjust="spacing" textLength="116">volume_status: string</text><text x="157" y="229.5" fill="#d9b8ff" font-family="sans-serif" font-size="11" lengthAdjust="spacing" textLength="102">volume_iops: int64</text><text x="157" y="252.455" fill="#d9b8ff" font-family="sans-serif" font-size="11" lengthAdjust="spacing" textLength="141">volume_throughput: int64</text><text x="157" y="275.41" fill="#d9b8ff" font-family="sans-serif" font-size="11" lengthAdjust="spacing" textLength="148">volume_encrypted: boolean</text><text x="157" y="298.365" fill="#d9b8ff" font-family="sans-serif" font-size="11" lengthAdjust="spacing" textLength="178">snapshot_before_delete: boolean</text><rect id="aws_ec2_volume" width="230" height="136.82" x="7" y="370" fill="#3d176e" codeLine="30" rx="2.5" ry="2.5" style="stroke:#000d19;stroke-width:1.5"/><ellipse cx="48.55" cy="388.5" fill="#e98df7" rx="11" ry="11" style="stroke:#000d19;stroke-width:1"/><path fill="#000" d="M51.0231,394.6431 Q50.4421,394.9419 49.8029,395.0913 Q49.1638,395.2407 48.4582,395.2407 Q45.9514,395.2407 44.6315,393.5889 Q43.3117,391.937 43.3117,388.8159 Q43.3117,385.6865 44.6315,384.0347 Q45.9514,382.3828 48.4582,382.3828 Q49.1638,382.3828 49.8112,382.5322 Q50.4587,382.6816 51.0231,382.9805 L51.0231,385.7031 Q50.3923,385.1221 49.7988,384.8523 Q49.2053,384.5825 48.5744,384.5825 Q47.2297,384.5825 46.5449,385.6492 Q45.8601,386.7158 45.8601,388.8159 Q45.8601,390.9077 46.5449,391.9744 Q47.2297,393.041 48.5744,393.041 Q49.2053,393.041 49.7988,392.7712 Q50.3923,392.5015 51.0231,391.9204 Z"/><text x="73.45" y="393.09" fill="#d9b8ff" font-family="Helvetica" font-size="17" lengthAdjust="spacing" textLength="129">aws_ec2_volume</text><line style="stroke:#000d19;stroke-width:1.5" x1="8" x2="236" y1="407" y2="407"/><text x="18" y="426.635" fill="#d9b8ff" font-family="sans-serif" font-size="11" lengthAdjust="spacing" textLength="145">volume_kms_key_id: string</text><text x="18" y="449.59" fill="#d9b8ff" font-family="sans-serif" font-size="11" lengthAdjust="spacing" textLength="208">volume_multi_attach_enabled: boolean</text><text x="18" y="472.545" fill="#d9b8ff" font-family="sans-serif" font-size="11" lengthAdjust="spacing" textLength="149">volume_outpost_arn: string</text><text x="18" y="495.5" fill="#d9b8ff" font-family="sans-serif" font-size="11" lengthAdjust="spacing" textLength="149">volume_snapshot_id: string</text><rect id="gcp_disk" width="197" height="90.91" x="272.5" y="393" fill="#3d176e" codeLine="36" rx="2.5" ry="2.5" style="stroke:#000d19;stroke-width:1.5"/><ellipse cx="328.25" cy="411.5" fill="#e98df7" rx="11" ry="11" style="stroke:#000d19;stroke-width:1"/><path fill="#000" d="M330.7231,417.6431 Q330.1421,417.9419 329.5029,418.0913 Q328.8638,418.2407 328.1582,418.2407 Q325.6514,418.2407 324.3315,416.5889 Q323.0117,414.937 323.0117,411.8159 Q323.0117,408.6865 324.3315,407.0347 Q325.6514,405.3828 328.1582,405.3828 Q328.8638,405.3828 329.5112,405.5322 Q330.1587,405.6816 330.7231,405.9805 L330.7231,408.7031 Q330.0923,408.1221 329.4988,407.8523 Q328.9053,407.5825 328.2744,407.5825 Q326.9297,407.5825 326.2449,408.6492 Q325.5601,409.7158 325.5601,411.8159 Q325.5601,413.9077 326.2449,414.9744 Q326.9297,416.041 328.2744,416.041 Q328.9053,416.041 329.4988,415.7712 Q330.0923,415.5015 330.7231,414.9204 Z"/><text x="353.75" y="416.09" fill="#d9b8ff" font-family="Helvetica" font-size="17" lengthAdjust="spacing" textLength="67">gcp_disk</text><line style="stroke:#000d19;stroke-width:1.5" x1="273.5" x2="468.5" y1="430" y2="430"/><text x="283.5" y="449.635" fill="#d9b8ff" font-family="sans-serif" font-size="11" lengthAdjust="spacing" textLength="172">last_attach_timestamp: datetime</text><text x="283.5" y="472.59" fill="#d9b8ff" font-family="sans-serif" font-size="11" lengthAdjust="spacing" textLength="175">last_detach_timestamp: datetime</text><rect id="cloud" width="82" height="37" x="335" y="7" fill="#3d176e" rx="2.5" ry="2.5" style="stroke:#000d19;stroke-width:1.5"/><ellipse cx="350" cy="25.5" fill="#e98df7" rx="11" ry="11" style="stroke:#000d19;stroke-width:1"/><path fill="#000" d="M352.4731,31.6431 Q351.8921,31.9419 351.2529,32.0913 Q350.6138,32.2407 349.9082,32.2407 Q347.4014,32.2407 346.0815,30.5889 Q344.7617,28.937 344.7617,25.8159 Q344.7617,22.6865 346.0815,21.0347 Q347.4014,19.3828 349.9082,19.3828 Q350.6138,19.3828 351.2612,19.5322 Q351.9087,19.6816 352.4731,19.9805 L352.4731,22.7031 Q351.8423,22.1221 351.2488,21.8523 Q350.6553,21.5825 350.0244,21.5825 Q348.6797,21.5825 347.9949,22.6492 Q347.3101,23.7158 347.3101,25.8159 Q347.3101,27.9077 347.9949,28.9744 Q348.6797,30.041 350.0244,30.041 Q350.6553,30.041 351.2488,29.7712 Q351.8423,29.5015 352.4731,28.9204 Z"/><text x="369" y="30.09" fill="#d9b8ff" font-family="Helvetica" font-size="17" lengthAdjust="spacing" textLength="40">cloud</text><path id="resource-backto-cloud" fill="none" d="M320.14,25.5 C325.02,25.5 329.9,25.5 334.78,25.5" codeLine="40" style="stroke:#ffaf37;stroke-width:2"/><polygon fill="#ffaf37" points="320.08 32.5 300.08 25.5 320.08 18.5 320.08 32.5" style="stroke:#ffaf37;stroke-width:2"/><path id="account-to-resource" fill="none" d="M156.59,25.5 C161.64,25.5 166.69,25.5 171.74,25.5" codeLine="41" style="stroke:#ffaf37;stroke-width:2"/><polygon fill="#ffaf37" points="171.86 18.5 191.86 25.5 171.86 32.5 171.86 18.5" style="stroke:#ffaf37;stroke-width:2"/><path id="resource-backto-volume" fill="none" d="M246,64.12 C246,75.95 246,89.62 246,103.72" codeLine="42" style="stroke:#ffaf37;stroke-width:2"/><polygon fill="#ffaf37" points="239 64.04 246 44.04 253 64.04 239 64.04" style="stroke:#ffaf37;stroke-width:2"/><path id="volume-backto-aws_ec2_volume" fill="none" d="M180.95,328.4 C173.24,342.66 165.6,356.8 158.5,369.95" codeLine="43" style="stroke:#ffaf37;stroke-width:2"/><polygon fill="#ffaf37" points="175.04 324.6 190.71 310.33 187.36 331.26 175.04 324.6" style="stroke:#ffaf37;stroke-width:2"/><path id="volume-backto-gcp_disk" fill="none" d="M311.38,328.03 C323.98,351.18 336.44,374.04 346.67,392.84" codeLine="44" style="stroke:#ffaf37;stroke-width:2"/><polygon fill="#ffaf37" points="305.16 331.24 301.74 310.33 317.45 324.55 305.16 331.24" style="stroke:#ffaf37;stroke-width:2"/></g></svg>

<svg xmlns="http://www.w3.org/2000/svg" width="476" height="513" preserveAspectRatio="none" style="width:476px;height:513px;background:#00000000"><rect width="108" height="37" x="192" y="7" fill="#3d176e" rx="2.5" ry="2.5" style="stroke:#000d19;stroke-width:1.5"/><circle cx="207" cy="25.5" r="11" fill="#e98df7" style="stroke:#000d19;stroke-width:1"/><path d="M209.473 31.643q-.58.299-1.22.448-.64.15-1.345.15-2.507 0-3.826-1.652-1.32-1.652-1.32-4.773 0-3.13 1.32-4.781 1.32-1.652 3.826-1.652.706 0 1.353.15.648.149 1.212.447v2.723q-.63-.58-1.224-.85t-1.225-.27q-1.344 0-2.03 1.066-.684 1.067-.684 3.167 0 2.092.685 3.158.685 1.067 2.03 1.067.63 0 1.224-.27.593-.27 1.224-.85Z"/><text x="226" y="30.09" fill="#d9b8ff" font-family="Helvetica" font-size="17" textLength="66">resource</text><rect width="101" height="37" x="55.5" y="7" fill="#3d176e" rx="2.5" ry="2.5" style="stroke:#000d19;stroke-width:1.5"/><circle cx="70.5" cy="25.5" r="11" fill="#e98df7" style="stroke:#000d19;stroke-width:1"/><path d="M72.973 31.643q-.58.299-1.22.448-.64.15-1.345.15-2.507 0-3.826-1.652-1.32-1.652-1.32-4.773 0-3.13 1.32-4.781 1.32-1.652 3.826-1.652.706 0 1.353.15.648.149 1.212.447v2.723q-.63-.58-1.224-.85t-1.225-.27q-1.344 0-2.03 1.066-.684 1.067-.684 3.167 0 2.092.685 3.158.685 1.067 2.03 1.067.63 0 1.224-.27.593-.27 1.224-.85Z"/><text x="89.5" y="30.09" fill="#d9b8ff" font-family="Helvetica" font-size="17" textLength="59">account</text><rect width="200" height="205.685" x="146" y="104" fill="#3d176e" rx="2.5" ry="2.5" style="stroke:#000d19;stroke-width:1.5"/><circle cx="209.75" cy="122.5" r="11" fill="#e98df7" style="stroke:#000d19;stroke-width:1"/><path d="M212.223 128.643q-.58.299-1.22.448-.64.15-1.345.15-2.507 0-3.826-1.652-1.32-1.652-1.32-4.773 0-3.13 1.32-4.781 1.32-1.652 3.826-1.652.706 0 1.353.15.648.149 1.212.448v2.722q-.63-.58-1.224-.85t-1.225-.27q-1.344 0-2.03 1.066-.684 1.067-.684 3.167 0 2.092.685 3.158.685 1.067 2.03 1.067.63 0 1.224-.27.593-.27 1.224-.85Z"/><text x="235.25" y="127.09" fill="#d9b8ff" font-family="Helvetica" font-size="17" textLength="54">volume</text><path d="M147 141h198" style="stroke:#000d19;stroke-width:1.5"/><text x="157" y="160.635" fill="#d9b8ff" font-family="sans-serif" font-size="11" textLength="100">volume_size: int64</text><text x="157" y="183.59" fill="#d9b8ff" font-family="sans-serif" font-size="11" textLength="106">volume_type: string</text><text x="157" y="206.545" fill="#d9b8ff" font-family="sans-serif" font-size="11" textLength="116">volume_status: string</text><text x="157" y="229.5" fill="#d9b8ff" font-family="sans-serif" font-size="11" textLength="102">volume_iops: int64</text><text x="157" y="252.455" fill="#d9b8ff" font-family="sans-serif" font-size="11" textLength="141">volume_throughput: int64</text><text x="157" y="275.41" fill="#d9b8ff" font-family="sans-serif" font-size="11" textLength="148">volume_encrypted: boolean</text><text x="157" y="298.365" fill="#d9b8ff" font-family="sans-serif" font-size="11" textLength="178">snapshot_before_delete: boolean</text><rect width="230" height="136.82" x="7" y="370" fill="#3d176e" rx="2.5" ry="2.5" style="stroke:#000d19;stroke-width:1.5"/><circle cx="48.55" cy="388.5" r="11" fill="#e98df7" style="stroke:#000d19;stroke-width:1"/><path d="M51.023 394.643q-.58.299-1.22.448-.64.15-1.345.15-2.507 0-3.826-1.652-1.32-1.652-1.32-4.773 0-3.13 1.32-4.781 1.32-1.652 3.826-1.652.706 0 1.353.15.648.149 1.212.447v2.723q-.63-.58-1.224-.85t-1.225-.27q-1.344 0-2.03 1.066-.684 1.067-.684 3.167 0 2.092.685 3.158.685 1.067 2.03 1.067.63 0 1.224-.27.593-.27 1.224-.85Z"/><text x="73.45" y="393.09" fill="#d9b8ff" font-family="Helvetica" font-size="17" textLength="129">aws_ec2_volume</text><path d="M8 407h228" style="stroke:#000d19;stroke-width:1.5"/><text x="18" y="426.635" fill="#d9b8ff" font-family="sans-serif" font-size="11" textLength="145">volume_kms_key_id: string</text><text x="18" y="449.59" fill="#d9b8ff" font-family="sans-serif" font-size="11" textLength="208">volume_multi_attach_enabled: boolean</text><text x="18" y="472.545" fill="#d9b8ff" font-family="sans-serif" font-size="11" textLength="149">volume_outpost_arn: string</text><text x="18" y="495.5" fill="#d9b8ff" font-family="sans-serif" font-size="11" textLength="149">volume_snapshot_id: string</text><rect width="197" height="90.91" x="272.5" y="393" fill="#3d176e" rx="2.5" ry="2.5" style="stroke:#000d19;stroke-width:1.5"/><circle cx="328.25" cy="411.5" r="11" fill="#e98df7" style="stroke:#000d19;stroke-width:1"/><path d="M330.723 417.643q-.58.299-1.22.448-.64.15-1.345.15-2.507 0-3.827-1.652-1.32-1.652-1.32-4.773 0-3.13 1.32-4.781 1.32-1.652 3.827-1.652.706 0 1.353.15.648.149 1.212.447v2.723q-.63-.58-1.224-.85t-1.225-.27q-1.344 0-2.03 1.066-.684 1.067-.684 3.167 0 2.092.685 3.158.685 1.067 2.03 1.067.63 0 1.224-.27.593-.27 1.224-.85Z"/><text x="353.75" y="416.09" fill="#d9b8ff" font-family="Helvetica" font-size="17" textLength="67">gcp_disk</text><path d="M273.5 430h195" style="stroke:#000d19;stroke-width:1.5"/><text x="283.5" y="449.635" fill="#d9b8ff" font-family="sans-serif" font-size="11" textLength="172">last_attach_timestamp: datetime</text><text x="283.5" y="472.59" fill="#d9b8ff" font-family="sans-serif" font-size="11" textLength="175">last_detach_timestamp: datetime</text><rect width="82" height="37" x="335" y="7" fill="#3d176e" rx="2.5" ry="2.5" style="stroke:#000d19;stroke-width:1.5"/><circle cx="350" cy="25.5" r="11" fill="#e98df7" style="stroke:#000d19;stroke-width:1"/><path d="M352.473 31.643q-.58.299-1.22.448-.64.15-1.345.15-2.507 0-3.827-1.652-1.32-1.652-1.32-4.773 0-3.13 1.32-4.781 1.32-1.652 3.827-1.652.706 0 1.353.15.648.149 1.212.447v2.723q-.63-.58-1.224-.85t-1.225-.27q-1.344 0-2.03 1.066-.684 1.067-.684 3.167 0 2.092.685 3.158.685 1.067 2.03 1.067.63 0 1.224-.27.593-.27 1.224-.85Z"/><text x="369" y="30.09" fill="#d9b8ff" font-family="Helvetica" font-size="17" textLength="40">cloud</text><path fill="none" d="M320.14 25.5h14.64" style="stroke:#ffaf37;stroke-width:2"/><path fill="#ffaf37" d="m320.08 32.5-20-7 20-7v14z" style="stroke:#ffaf37;stroke-width:2"/><path fill="none" d="M156.59 25.5h15.15" style="stroke:#ffaf37;stroke-width:2"/><path fill="#ffaf37" d="m171.86 18.5 20 7-20 7v-14z" style="stroke:#ffaf37;stroke-width:2"/><path fill="none" d="M246 64.12v39.6" style="stroke:#ffaf37;stroke-width:2"/><path fill="#ffaf37" d="m239 64.04 7-20 7 20h-14z" style="stroke:#ffaf37;stroke-width:2"/><path fill="none" d="M180.95 328.4c-7.71 14.26-15.35 28.4-22.45 41.55" style="stroke:#ffaf37;stroke-width:2"/><path fill="#ffaf37" d="m175.04 324.6 15.67-14.27-3.35 20.93-12.32-6.66z" style="stroke:#ffaf37;stroke-width:2"/><path fill="none" d="M311.38 328.03c12.6 23.15 25.06 46.01 35.29 64.81" style="stroke:#ffaf37;stroke-width:2"/><path fill="#ffaf37" d="m305.16 331.24-3.42-20.91 15.71 14.22-12.29 6.69z" style="stroke:#ffaf37;stroke-width:2"/></svg>
